X:19100
T:Xiraldilla de Llaviana (MG 91)
R:Xiraldilla
C:Tradicional (gaita)
S:Msica Tradicional Asturiana, (C) Tello & Tito. Asturies, 2001.
S:http://pagina.de/MusTradAst <telloytito@asturies.org>
O:Llaviana
A:Asturies
Z:Mtodu de Gaita 91
E:Comp.
M:3/4
L:1/4
Q:2/4=100
K:D
|:B2 c|f2 f|g2 f|e2 c|e e c|d d B|c B ^A|[1 B3:|[2 B2 B|
|:edc|dcB|c B ^A|[1 B2 B:|[2 B3|f3|B3|
